desktop/resources/assets/clipboard-paste.svg

<svg width="16" height="16" viewBox="0 0 16 16" fill="none" xmlns="http://www.w3.org/2000/svg">
<path d="M4.08535 2H3.5C3.10218 2 2.72064 2.15804 2.43934 2.43934C2.15804 2.72064 2 3.10218 2 3.5V13.5C2 13.8978 2.15804 14.2794 2.43934 14.5607C2.72064 14.842 3.10217 15 3.5 15H6.1115V14H3.5C3.36739 14 3.24021 13.9473 3.14645 13.8536C3.05268 13.7598 3 13.6326 3 13.5V3.5C3 3.36739 3.05268 3.24021 3.14645 3.14645C3.24021 3.05268 3.36739 3 3.5 3H4.08535C4.29127 3.5826 4.84689 4 5.5 4H8.5C9.15311 4 9.70873 3.5826 9.91465 3H10.5C10.6326 3 10.7598 3.05268 10.8536 3.14645C10.9473 3.24022 11 3.36739 11 3.5V5H12V3.5C12 3.10217 11.842 2.72064 11.5607 2.43934C11.2794 2.15804 10.8978 2 10.5 2H9.91465C9.70873 1.4174 9.15311 1 8.5 1H5.5C4.84689 1 4.29127 1.4174 4.08535 2ZM5 2.5C5 2.22386 5.22386 2 5.5 2H8.5C8.77614 2 9 2.22386 9 2.5C9 2.77614 8.77614 3 8.5 3H5.5C5.22386 3 5 2.77614 5 2.5ZM8.5 6C7.67157 6 7 6.67157 7 7.5V13.5C7 14.3284 7.67157 15 8.5 15H12.5C13.3284 15 14 14.3284 14 13.5V7.5C14 6.67157 13.3284 6 12.5 6H8.5ZM8 7.5C8 7.22386 8.22386 7 8.5 7H12.5C12.7761 7 13 7.22386 13 7.5V13.5C13 13.7761 12.7761 14 12.5 14H8.5C8.22386 14 8 13.7761 8 13.5V7.5Z" fill="#888"/>
</svg>

<svg xmlns="http://www.w3.org/2000/svg" width="16" height="16" fill="none"><path fill="#888" d="M4.085 2H3.5A1.5 1.5 0 0 0 2 3.5v10A1.5 1.5 0 0 0 3.5 15h2.612v-1H3.5a.5.5 0 0 1-.5-.5v-10a.5.5 0 0 1 .5-.5h.585A1.5 1.5 0 0 0 5.5 4h3a1.5 1.5 0 0 0 1.415-1h.585a.5.5 0 0 1 .5.5V5h1V3.5A1.5 1.5 0 0 0 10.5 2h-.585A1.5 1.5 0 0 0 8.5 1h-3a1.5 1.5 0 0 0-1.415 1M5 2.5a.5.5 0 0 1 .5-.5h3a.5.5 0 0 1 0 1h-3a.5.5 0 0 1-.5-.5M8.5 6A1.5 1.5 0 0 0 7 7.5v6A1.5 1.5 0 0 0 8.5 15h4a1.5 1.5 0 0 0 1.5-1.5v-6A1.5 1.5 0 0 0 12.5 6zM8 7.5a.5.5 0 0 1 .5-.5h4a.5.5 0 0 1 .5.5v6a.5.5 0 0 1-.5.5h-4a.5.5 0 0 1-.5-.5z"/></svg>
